X:1
T:Title
%%score { ( 1 3 ) | ( 2 4 ) }
L:1/8
M:4/4
K:D
V:1 treble nm="Grand Piano"
V:3 treble 
V:2 bass 
V:4 bass 
V:1
 z4 z2[Q:1/4=100] [Fd]2 | A2 F2 [DG]2 A2 | B2 [DB]2 [DA]2 [A,F]E | %3
 [F,D]2 [A,EG]2 [A,DF]2[K:bass] [G,B,E]2 |[M:3/4] [F,A,D]2 .[E,A,C]2 [F,A,D]2 |[M:1/4] [A,CE]2 | %6
[M:4/4][K:treble] [A,DF]2 [^G,D^G]2 [CA]2 [CFA]2 | .[B,FB]2 [EB]2 [Ec]2 [Ed]2 | z2 [Fd]2 z4 | %9
[M:3/4] dc B2 A2 |[M:1/4] A2 |[M:4/4] B2 E2 A2 A2 | [B,G]-[B,EG] z B, E2 AA | %13
 [Ad]2 [Ge]2 [FA]2 [Fd]2 |[M:7/4] .[EG]2[K:bass] z2 z2 z2 z2 z4 |[M:4/4] [G,B,D]4 [F,A,D]4 |] %16
V:2
 z4 z2 [D,A,]2 | [F,D]2 [D,A,D]2 [B,,G,]2 [D,F,D]2 | [G,D]2 [G,,G,]2 [D,F,]2 z G, | %3
 B,,2 C,2 D,2 G,,2 |[M:3/4] A,,2 z G, D,2 |[M:1/4] A,,2 |[M:4/4] D,2 B,,2 F,2 F,E, | %7
 z A, [E,^G,]2 [A,,A,]2 [B,,G,]2 | [C,A,]2 [F,A,]^G, [A,CE]2 [F,CF]2 | %9
[M:3/4] B,A, [E,^G,D]2[K:treble] [A,C]2 |[M:1/4] [A,CE]2 | %11
[M:4/4] [A,DF]2 [G,B,]2 [G,CE]2[K:bass] [F,D]2 | B,,C, .[D,A,D]2 [A,C]2 .[F,CF]2 | %13
 [B,,B,]2 [C,A,]2 [D,A,]2 B,-[A,,B,] |[M:7/4] z D A,,2 D,2 z2 z2 z4 |[M:4/4] G,,4 D,4 |] %16
V:3
 x8 | x8 | z4 z2 C2 | x6[K:bass] x2 |[M:3/4] x6 |[M:1/4] x2 |[M:4/4][K:treble] x8 | x8 | %8
 [Ee]2 z B, c2 A2 |[M:3/4] F2 z2 z2 |[M:1/4] x2 |[M:4/4] x8 | .D2 F2 z4 | x8 | %14
[M:7/4] B,-[B,F][K:bass] [G,CE]2 [F,D]2 z2 z2 z4 |[M:4/4] x8 |] %16
V:4
 x8 | x8 | z4 z2 A,,2 | x8 |[M:3/4] z2 A,,2 z2 |[M:1/4] x2 |[M:4/4] x8 | D,2 z2 z4 | x8 | %9
[M:3/4] D,2 z2[K:treble] z2 |[M:1/4] x2 |[M:4/4] x6[K:bass] x2 | x8 | z4 z2 .B,,2 | %14
[M:7/4] G,,2 z2 z2 z2 z2 z4 |[M:4/4] x8 |] %16

